assets/images/index/item-3.svg

<svg width="122" height="92" viewBox="0 0 122 92" fill="none" xmlns="http://www.w3.org/2000/svg">
<path d="M53.6338 70.9993V72.9307L53.9394 89.4775V90.6334L120.5 52.7957V42.1479V31.5" stroke="#0000BD" stroke-miterlimit="10" stroke-linecap="round" stroke-linejoin="round"/>
<path d="M38 81.5L53.8782 90.6959L53.9394 89.4792" stroke="#0000BD" stroke-miterlimit="10" stroke-linecap="round" stroke-linejoin="round"/>
<path d="M2.16162 43.5V60.9479L15.2436 68.4913" stroke="#0000BD" stroke-miterlimit="10" stroke-linecap="round" stroke-linejoin="round"/>
<path d="M16.4663 69.1602L23.802 73.3577L24.5967 73.8444L38.1678 81.6919" stroke="#0000BD" stroke-miterlimit="10" stroke-linecap="round" stroke-linejoin="round"/>
<path d="M1.30566 40.5V43.2201C1.30566 43.2201 1.61132 43.3417 2.1615 43.5242C6.07388 44.8018 22.2124 50.3376 27.592 53.3185C34.5609 57.2119 52.35 72.4204 53.6949 73.5762C53.756 73.637 53.756 73.637 53.756 73.637L120.022 35.1292L120.5 35V32" stroke="#DF0112" stroke-miterlimit="10" stroke-linecap="round" stroke-linejoin="round"/>
<path d="M1.30566 40.2384L68.3051 1.30469C68.3051 1.30469 88.295 7.87475 94.4081 11.2814C101.683 15.3573 120.755 31.7216 120.755 31.7216L53.756 70.6553C53.756 70.6553 34.8054 54.4127 27.592 50.3368C21.4177 46.8693 1.30566 40.2384 1.30566 40.2384Z" stroke="#DF0112" stroke-miterlimit="10" stroke-linecap="round" stroke-linejoin="round"/>
<path d="M38.1677 81.6929V66.0586L16.4662 53.5268L15.916 53.2227V69" stroke="#0000BD" stroke-miterlimit="10" stroke-linecap="round" stroke-linejoin="round"/>
</svg>

<svg width="122" height="92" fill="none" xmlns="http://www.w3.org/2000/svg"><path d="M53.634 71v1.93l.305 16.547v1.156L120.5 52.796V31.5" stroke="#0000BD" stroke-miterlimit="10" stroke-linecap="round" stroke-linejoin="round"/><path d="M38 81.5l15.878 9.196.061-1.217M2.162 43.5v17.448l13.082 7.543m1.222.669l7.336 4.198.795.486 13.57 7.848" stroke="#0000BD" stroke-miterlimit="10" stroke-linecap="round" stroke-linejoin="round"/><path d="M1.306 40.5v2.72s.305.122.856.304c3.912 1.278 20.05 6.814 25.43 9.794 6.969 3.894 24.758 19.102 26.103 20.258l.061.061 66.266-38.508.478-.129v-3" stroke="#DF0112" stroke-miterlimit="10" stroke-linecap="round" stroke-linejoin="round"/><path d="M1.306 40.238l67-38.933s19.989 6.57 26.102 9.976c7.275 4.076 26.347 20.44 26.347 20.44L53.756 70.656s-18.95-16.242-26.164-20.318c-6.174-3.469-26.286-10.1-26.286-10.1z" stroke="#DF0112" stroke-miterlimit="10" stroke-linecap="round" stroke-linejoin="round"/><path d="M38.168 81.693V66.059L16.466 53.527l-.55-.304V69" stroke="#0000BD" stroke-miterlimit="10" stroke-linecap="round" stroke-linejoin="round"/></svg>
